icon-themes/sifr_svg/cmd/sc_flowchartshapes.flowchart-sequential-access.svg

<svg viewBox="0 0 16 16" xmlns="http://www.w3.org/2000/svg"><g fill="#555753"><path d="m8 3c-3.8659932 0-7 2.2385763-7 5 0 2.761424 3.1340068 5 7 5h7v-1l-1.972656-.527344c1.272656-.92364 1.97021-2.1659349 1.972656-3.472656 0-2.7614237-3.134007-5-7-5zm0 2a5 3 0 0 1 5 3 5 3 0 0 1 -5 3 5 3 0 0 1 -5-3 5 3 0 0 1 5-3z"/><path d="m8 4a6 4 0 0 0 -6 4 6 4 0 0 0 6 4 6 4 0 0 0 6-4 6 4 0 0 0 -6-4z" opacity=".35"/></g></svg>

<svg xmlns="http://www.w3.org/2000/svg" viewBox="0 0 16 16">
  <path
     style="fill:#555753"
     d="M 8 3 C 4.1340068 3 1 5.2385763 1 8 C 1 10.761424 4.1340068 13 8 13 L 15 13 L 15 12 L 13.027344 11.472656 C 14.3 10.549016 14.997554 9.3067211 15 8 C 15 5.2385763 11.865993 3 8 3 z M 8 5 A 5 3 0 0 1 13 8 A 5 3 0 0 1 8 11 A 5 3 0 0 1 3 8 A 5 3 0 0 1 8 5 z "
     />
  <path
     style="opacity:0.35;fill:#555753"
     d="M 8 4 A 6 4 0 0 0 2 8 A 6 4 0 0 0 8 12 A 6 4 0 0 0 14 8 A 6 4 0 0 0 8 4 z "
     />
</svg>
